src/assets/images/logo.svg

<svg height="32" viewBox="0 0 164 32" width="164" xmlns="http://www.w3.org/2000/svg"><g fill="none" fill-rule="evenodd"><path d="m106.08 29v-2.92h1.95c.406667 0 .775-.0766667 1.105-.23s.593333-.3783333.79-.675.295-.655.295-1.075v-.12c0-.42-.096667-.7766667-.29-1.07s-.455-.5183333-.785-.675-.701667-.235-1.115-.235h-2.59v7zm1.88-3.5h-1.88v-2.92h1.88c.513333 0 .911667.1216667 1.195.365s.425.5916667.425 1.045v.1c0 .4466667-.145.7933333-.435 1.04s-.685.37-1.185.37zm5.37 3.6c.52 0 .916667-.1016667 1.19-.305s.47-.435.59-.695h.12v.9h.58v-4.86h-.6v2.43c0 .6666667-.166667 1.165-.5 1.495s-.75.495-1.25.495c-.446667 0-.803333-.1183333-1.07-.355s-.4-.6183333-.4-1.145v-2.92h-.6v2.96c0 .4466667.088333.8183333.265 1.115s.413333.5183333.71.665.618333.22.965.22zm6.84.04c.433333 0 .826667-.1016667 1.18-.305s.635-.4933333.845-.87.315-.8216667.315-1.335v-.12c0-.5133333-.103333-.9583333-.31-1.335s-.486667-.6666667-.84-.87-.75-.305-1.19-.305c-.353333 0-.655.0483333-.905.145s-.453333.22-.61.37-.278333.3083333-.365.475h-.12v-2.99h-.6v7h.58v-.89h.12c.14.2666667.358333.505.655.715s.711667.315 1.245.315zm-.14-.54c-.546667 0-.993333-.1766667-1.34-.53s-.52-.84-.52-1.46v-.08c0-.62.173333-1.1066667.52-1.46s.793333-.53 1.34-.53c.553333 0 1.001667.1766667 1.345.53s.515.84.515 1.46v.08c0 .62-.171667 1.1066667-.515 1.46s-.791667.53-1.345.53zm4.6.4v-7h-.6v7zm2.06-5.7c.153333 0 .278333-.05.375-.15s.145-.2233333.145-.37c0-.1533333-.048333-.2783333-.145-.375s-.221667-.145-.375-.145c-.146667 0-.27.0483333-.37.145s-.15.2216667-.15.375c0 .1466667.05.27.15.37s.223333.15.37.15zm.3 5.7v-4.86h-.6v4.86zm3.98.14c.466667 0 .861667-.0883333 1.185-.265s.58-.4066667.77-.69.315-.5816667.375-.895l-.59-.12c-.066667.4-.24.7383333-.52 1.015s-.686667.415-1.22.415c-.353333 0-.67-.0816667-.95-.245s-.501667-.3933333-.665-.69-.245-.6483333-.245-1.055v-.08c0-.4066667.081667-.7583333.245-1.055s.385-.5266667.665-.69.596667-.245.95-.245.65.065.89.195.426667.3033333.56.52.216667.455.25.715l.59-.12c-.046667-.3133333-.161667-.6116667-.345-.895s-.436667-.5133333-.76-.69-.718333-.265-1.185-.265c-.473333 0-.895.1016667-1.265.305s-.661667.4933333-.875.87-.32.825-.32 1.345v.1c0 .5133333.106667.96.32 1.34s.505.6716667.875.875.791667.305 1.265.305zm9.43-.14c.4 0 .758333-.0716667 1.075-.215s.566667-.3516667.75-.625.275-.6.275-.98v-.1c0-.3266667-.061667-.5966667-.185-.81s-.276667-.3816667-.46-.505-.361667-.205-.535-.245v-.12c.173333-.0533333.35-.14.53-.26s.333333-.2866667.46-.5.19-.4833333.19-.81v-.08c0-.3466667-.088333-.6516667-.265-.915s-.421667-.4683333-.735-.615-.67-.22-1.07-.22h-3.47v.58h1v5.84h-1v.58zm-.02-3.82h-1.78v-2.6h1.78c.46 0 .821667.115 1.085.345s.395.5316667.395.905v.1c0 .3733333-.131667.675-.395.905s-.625.345-1.085.345zm-.04 3.24h-1.74v-2.66h1.74c.5 0 .878333.1166667 1.135.35s.385.5466667.385.94v.08c0 .3933333-.128333.7066667-.385.94s-.635.35-1.135.35zm5.86.72c.433333 0 .79-.0683333 1.07-.205s.508333-.31.685-.52.315-.425.415-.645l-.54-.24c-.133333.3-.325.5533333-.575.76s-.601667.31-1.055.31c-.533333 0-.975-.165-1.325-.495s-.535-.7983333-.555-1.405h4.14v-.32c0-.4933333-.1-.9183333-.3-1.275s-.475-.63-.825-.82-.751667-.285-1.205-.285c-.466667 0-.881667.105-1.245.315s-.648333.5033333-.855.88-.31.815-.31 1.315v.12c0 .4933333.103333.93.31 1.31s.495.675.865.885.805.315 1.305.315zm1.65-2.96h-3.52c.073333-.5266667.27-.9316667.59-1.215s.723333-.425 1.21-.425c.493333 0 .896667.1416667 1.21.425s.483333.6883333.51 1.215zm5.11 2.82v-.54h-1.14c-.2 0-.3-.1-.3-.3v-3.48h1.7v-.54h-1.7v-1.82h-.6v1.82h-1.56v.54h1.56v3.56c0 .24.065.4266667.195.56s.325.2.585.2zm3.09.14c.333333 0 .61-.0433333.83-.13s.398333-.2.535-.34.248333-.2833333.335-.43h.1v.07c0 .2133333.06.3816667.18.505s.283333.185.49.185h.64v-.52h-.47c-.186667 0-.28-.1-.28-.3v-2.36c0-.5733333-.168333-1.02-.505-1.34s-.811667-.48-1.425-.48c-.4 0-.743333.0683333-1.03.205s-.516667.32-.69.55-.3.4883333-.38.775l.58.17c.086667-.3533333.255-.635.505-.845s.588333-.315 1.015-.315c.433333 0 .763333.11.99.33s.34.5266667.34.92v.39h-1.78c-.333333 0-.636667.0533333-.91.16s-.49.2666667-.65.48-.24.4833333-.24.81c0 .32.08.5933333.24.82s.378333.3983333.655.515.585.175.925.175zm.04-.54c-.366667 0-.668333-.085-.905-.255s-.355-.4116667-.355-.725.115-.545.345-.695.518333-.225.865-.225h1.77v.12c0 .5666667-.158333 1.005-.475 1.315s-.731667.465-1.245.465z" fill="#fff" fill-rule="nonzero"/><g fill="#fff" fill-rule="nonzero"><path d="m29.3669604 0-7.844 12.732-3.21 5.21-3.244 5.266c-1.0192047.8591608-2.3643191 1.2273398-3.679 1.007-.936614-.1518338-1.8017594-.5943769-2.47299998-1.265-.845-.845-1.314-2.084-1.287-3.399.025-1.194.453-2.26 1.174-2.924.946-.87 1.89599998-1.204 2.79799998-1.204 1.337 0 2.566.733 3.511 1.536l.03.025c.003.003.232.238.431.563l4.171-6.65c-2.176-1.763-4.548-2.779-6.913-3.045-3.25799998-.369-6.49999998.682-9.19499998 3.163-2.241 2.063-3.567 5.117-3.634 8.379-.04843971 2.2296528.49832991 4.4319193 1.584 6.38.52436693.941432 1.17581295 1.8062131 1.936 2.57 1.06346047 1.0633057 2.31541812 1.9195336 3.692 2.525 1.54977274.6824662 3.22461418 1.035 4.91799998 1.035 3.118 0 6.236-1.186 8.61-3.56l.316-.317.828-1.343 2.905-4.715 4.627-7.51 4.702 7.51h-6.459l-4.215 7.63h24.451l-.03-.048z"/><path d="m59.4909604 5.695h4.119l5.237 12.515h-4.51l-.656-1.669h-4.35l-.638 1.669h-4.44zm3.16 7.899-1.136-3.018-1.136 3.018z"/><path d="m73.7999604 5.783h4.332l2.663 4.367 2.662-4.367h4.332v12.427h-4.136v-6.16l-2.858 4.42h-.072l-2.858-4.42v6.16h-4.065z"/><path d="m93.6489604 5.783h5.59c3.3039996 0 5.5579996 1.474 5.5579996 4.42v.036c0 3-2.29 4.598-5.6449996 4.598h-1.35v3.373h-4.153zm5.272 6.09c1.065 0 1.7749996-.48 1.7749996-1.368v-.035c0-.906-.656-1.368-1.7569996-1.368h-1.136v2.77z"/><path d="m110.12396 5.783h4.153v8.876h5.842v3.551h-9.996z"/><path d="m125.49796 5.783h4.154v12.427h-4.154z"/><path d="m135.54596 5.783h10.403v3.55h-6.249v1.58h5.805v3.231h-5.805v4.066h-4.154z"/><path d="m155.05596 13.807-4.686-8.023h4.652l2.13 4.083 2.148-4.083h4.598l-4.687 7.97v4.456h-4.154z"/></g><path d="m99.4285714 22.5v1.9645714l1.3897036-1.3889375.606091.6060915-1.390652 1.3897032h1.966286v.8571428h-1.965429l1.389795 1.3897032-.606091.6060915-1.3897036-1.3897947v1.9654286h-.8571428v-1.9662857l-1.3897032 1.3906518-.6060915-.6060915 1.3889375-1.3897032h-1.9645714v-.8571428h1.9654286l-1.3897947-1.3897032.6060915-.6060915 1.3897032 1.3897947v-1.9654286z" fill="#e52b25"/></g></svg>

<?xml version="1.0" encoding="UTF-8"?>
<svg width="164px" height="32px" viewBox="0 0 164 32" version="1.1" xmlns="http://www.w3.org/2000/svg" xmlns:xlink="http://www.w3.org/1999/xlink">
    <title>Artboard</title>
    <g id="Artboard" stroke="none" stroke-width="1" fill="none" fill-rule="evenodd">
        <path d="M106.08,29 L106.08,26.08 L108.03,26.08 C108.436667,26.08 108.805,26.0033333 109.135,25.85 C109.465,25.6966667 109.728333,25.4716667 109.925,25.175 C110.121667,24.8783333 110.22,24.52 110.22,24.1 L110.22,24.1 L110.22,23.98 C110.22,23.56 110.123333,23.2033333 109.93,22.91 C109.736667,22.6166667 109.475,22.3916667 109.145,22.235 C108.815,22.0783333 108.443333,22 108.03,22 L108.03,22 L105.44,22 L105.44,29 L106.08,29 Z M107.96,25.5 L106.08,25.5 L106.08,22.58 L107.96,22.58 C108.473333,22.58 108.871667,22.7016667 109.155,22.945 C109.438333,23.1883333 109.58,23.5366667 109.58,23.99 L109.58,23.99 L109.58,24.09 C109.58,24.5366667 109.435,24.8833333 109.145,25.13 C108.855,25.3766667 108.46,25.5 107.96,25.5 L107.96,25.5 Z M113.33,29.1 C113.85,29.1 114.246667,28.9983333 114.52,28.795 C114.793333,28.5916667 114.99,28.36 115.11,28.1 L115.11,28.1 L115.23,28.1 L115.23,29 L115.81,29 L115.81,24.14 L115.21,24.14 L115.21,26.57 C115.21,27.2366667 115.043333,27.735 114.71,28.065 C114.376667,28.395 113.96,28.56 113.46,28.56 C113.013333,28.56 112.656667,28.4416667 112.39,28.205 C112.123333,27.9683333 111.99,27.5866667 111.99,27.06 L111.99,27.06 L111.99,24.14 L111.39,24.14 L111.39,27.1 C111.39,27.5466667 111.478333,27.9183333 111.655,28.215 C111.831667,28.5116667 112.068333,28.7333333 112.365,28.88 C112.661667,29.0266667 112.983333,29.1 113.33,29.1 Z M120.17,29.14 C120.603333,29.14 120.996667,29.0383333 121.35,28.835 C121.703333,28.6316667 121.985,28.3416667 122.195,27.965 C122.405,27.5883333 122.51,27.1433333 122.51,26.63 L122.51,26.63 L122.51,26.51 C122.51,25.9966667 122.406667,25.5516667 122.2,25.175 C121.993333,24.7983333 121.713333,24.5083333 121.36,24.305 C121.006667,24.1016667 120.61,24 120.17,24 C119.816667,24 119.515,24.0483333 119.265,24.145 C119.015,24.2416667 118.811667,24.365 118.655,24.515 C118.498333,24.665 118.376667,24.8233333 118.29,24.99 L118.29,24.99 L118.17,24.99 L118.17,22 L117.57,22 L117.57,29 L118.15,29 L118.15,28.11 L118.27,28.11 C118.41,28.3766667 118.628333,28.615 118.925,28.825 C119.221667,29.035 119.636667,29.14 120.17,29.14 Z M120.03,28.6 C119.483333,28.6 119.036667,28.4233333 118.69,28.07 C118.343333,27.7166667 118.17,27.23 118.17,26.61 L118.17,26.61 L118.17,26.53 C118.17,25.91 118.343333,25.4233333 118.69,25.07 C119.036667,24.7166667 119.483333,24.54 120.03,24.54 C120.583333,24.54 121.031667,24.7166667 121.375,25.07 C121.718333,25.4233333 121.89,25.91 121.89,26.53 L121.89,26.53 L121.89,26.61 C121.89,27.23 121.718333,27.7166667 121.375,28.07 C121.031667,28.4233333 120.583333,28.6 120.03,28.6 Z M124.63,29 L124.63,22 L124.03,22 L124.03,29 L124.63,29 Z M126.69,23.3 C126.843333,23.3 126.968333,23.25 127.065,23.15 C127.161667,23.05 127.21,22.9266667 127.21,22.78 C127.21,22.6266667 127.161667,22.5016667 127.065,22.405 C126.968333,22.3083333 126.843333,22.26 126.69,22.26 C126.543333,22.26 126.42,22.3083333 126.32,22.405 C126.22,22.5016667 126.17,22.6266667 126.17,22.78 C126.17,22.9266667 126.22,23.05 126.32,23.15 C126.42,23.25 126.543333,23.3 126.69,23.3 Z M126.99,29 L126.99,24.14 L126.39,24.14 L126.39,29 L126.99,29 Z M130.97,29.14 C131.436667,29.14 131.831667,29.0516667 132.155,28.875 C132.478333,28.6983333 132.735,28.4683333 132.925,28.185 C133.115,27.9016667 133.24,27.6033333 133.3,27.29 L133.3,27.29 L132.71,27.17 C132.643333,27.57 132.47,27.9083333 132.19,28.185 C131.91,28.4616667 131.503333,28.6 130.97,28.6 C130.616667,28.6 130.3,28.5183333 130.02,28.355 C129.74,28.1916667 129.518333,27.9616667 129.355,27.665 C129.191667,27.3683333 129.11,27.0166667 129.11,26.61 L129.11,26.61 L129.11,26.53 C129.11,26.1233333 129.191667,25.7716667 129.355,25.475 C129.518333,25.1783333 129.74,24.9483333 130.02,24.785 C130.3,24.6216667 130.616667,24.54 130.97,24.54 C131.323333,24.54 131.62,24.605 131.86,24.735 C132.1,24.865 132.286667,25.0383333 132.42,25.255 C132.553333,25.4716667 132.636667,25.71 132.67,25.97 L132.67,25.97 L133.26,25.85 C133.213333,25.5366667 133.098333,25.2383333 132.915,24.955 C132.731667,24.6716667 132.478333,24.4416667 132.155,24.265 C131.831667,24.0883333 131.436667,24 130.97,24 C130.496667,24 130.075,24.1016667 129.705,24.305 C129.335,24.5083333 129.043333,24.7983333 128.83,25.175 C128.616667,25.5516667 128.51,26 128.51,26.52 L128.51,26.52 L128.51,26.62 C128.51,27.1333333 128.616667,27.58 128.83,27.96 C129.043333,28.34 129.335,28.6316667 129.705,28.835 C130.075,29.0383333 130.496667,29.14 130.97,29.14 Z M140.4,29 C140.8,29 141.158333,28.9283333 141.475,28.785 C141.791667,28.6416667 142.041667,28.4333333 142.225,28.16 C142.408333,27.8866667 142.5,27.56 142.5,27.18 L142.5,27.18 L142.5,27.08 C142.5,26.7533333 142.438333,26.4833333 142.315,26.27 C142.191667,26.0566667 142.038333,25.8883333 141.855,25.765 C141.671667,25.6416667 141.493333,25.56 141.32,25.52 L141.32,25.52 L141.32,25.4 C141.493333,25.3466667 141.67,25.26 141.85,25.14 C142.03,25.02 142.183333,24.8533333 142.31,24.64 C142.436667,24.4266667 142.5,24.1566667 142.5,23.83 L142.5,23.83 L142.5,23.75 C142.5,23.4033333 142.411667,23.0983333 142.235,22.835 C142.058333,22.5716667 141.813333,22.3666667 141.5,22.22 C141.186667,22.0733333 140.83,22 140.43,22 L140.43,22 L136.96,22 L136.96,22.58 L137.96,22.58 L137.96,28.42 L136.96,28.42 L136.96,29 L140.4,29 Z M140.38,25.18 L138.6,25.18 L138.6,22.58 L140.38,22.58 C140.84,22.58 141.201667,22.695 141.465,22.925 C141.728333,23.155 141.86,23.4566667 141.86,23.83 L141.86,23.83 L141.86,23.93 C141.86,24.3033333 141.728333,24.605 141.465,24.835 C141.201667,25.065 140.84,25.18 140.38,25.18 L140.38,25.18 Z M140.34,28.42 L138.6,28.42 L138.6,25.76 L140.34,25.76 C140.84,25.76 141.218333,25.8766667 141.475,26.11 C141.731667,26.3433333 141.86,26.6566667 141.86,27.05 L141.86,27.05 L141.86,27.13 C141.86,27.5233333 141.731667,27.8366667 141.475,28.07 C141.218333,28.3033333 140.84,28.42 140.34,28.42 L140.34,28.42 Z M146.2,29.14 C146.633333,29.14 146.99,29.0716667 147.27,28.935 C147.55,28.7983333 147.778333,28.625 147.955,28.415 C148.131667,28.205 148.27,27.99 148.37,27.77 L148.37,27.77 L147.83,27.53 C147.696667,27.83 147.505,28.0833333 147.255,28.29 C147.005,28.4966667 146.653333,28.6 146.2,28.6 C145.666667,28.6 145.225,28.435 144.875,28.105 C144.525,27.775 144.34,27.3066667 144.32,26.7 L144.32,26.7 L148.46,26.7 L148.46,26.38 C148.46,25.8866667 148.36,25.4616667 148.16,25.105 C147.96,24.7483333 147.685,24.475 147.335,24.285 C146.985,24.095 146.583333,24 146.13,24 C145.663333,24 145.248333,24.105 144.885,24.315 C144.521667,24.525 144.236667,24.8183333 144.03,25.195 C143.823333,25.5716667 143.72,26.01 143.72,26.51 L143.72,26.51 L143.72,26.63 C143.72,27.1233333 143.823333,27.56 144.03,27.94 C144.236667,28.32 144.525,28.615 144.895,28.825 C145.265,29.035 145.7,29.14 146.2,29.14 Z M147.85,26.18 L144.33,26.18 C144.403333,25.6533333 144.6,25.2483333 144.92,24.965 C145.24,24.6816667 145.643333,24.54 146.13,24.54 C146.623333,24.54 147.026667,24.6816667 147.34,24.965 C147.653333,25.2483333 147.823333,25.6533333 147.85,26.18 L147.85,26.18 Z M152.96,29 L152.96,28.46 L151.82,28.46 C151.62,28.46 151.52,28.36 151.52,28.16 L151.52,28.16 L151.52,24.68 L153.22,24.68 L153.22,24.14 L151.52,24.14 L151.52,22.32 L150.92,22.32 L150.92,24.14 L149.36,24.14 L149.36,24.68 L150.92,24.68 L150.92,28.24 C150.92,28.48 150.985,28.6666667 151.115,28.8 C151.245,28.9333333 151.44,29 151.7,29 L151.7,29 L152.96,29 Z M156.05,29.14 C156.383333,29.14 156.66,29.0966667 156.88,29.01 C157.1,28.9233333 157.278333,28.81 157.415,28.67 C157.551667,28.53 157.663333,28.3866667 157.75,28.24 L157.75,28.24 L157.85,28.24 L157.85,28.31 C157.85,28.5233333 157.91,28.6916667 158.03,28.815 C158.15,28.9383333 158.313333,29 158.52,29 L158.52,29 L159.16,29 L159.16,28.48 L158.69,28.48 C158.503333,28.48 158.41,28.38 158.41,28.18 L158.41,28.18 L158.41,25.82 C158.41,25.2466667 158.241667,24.8 157.905,24.48 C157.568333,24.16 157.093333,24 156.48,24 C156.08,24 155.736667,24.0683333 155.45,24.205 C155.163333,24.3416667 154.933333,24.525 154.76,24.755 C154.586667,24.985 154.46,25.2433333 154.38,25.53 L154.38,25.53 L154.96,25.7 C155.046667,25.3466667 155.215,25.065 155.465,24.855 C155.715,24.645 156.053333,24.54 156.48,24.54 C156.913333,24.54 157.243333,24.65 157.47,24.87 C157.696667,25.09 157.81,25.3966667 157.81,25.79 L157.81,25.79 L157.81,26.18 L156.03,26.18 C155.696667,26.18 155.393333,26.2333333 155.12,26.34 C154.846667,26.4466667 154.63,26.6066667 154.47,26.82 C154.31,27.0333333 154.23,27.3033333 154.23,27.63 C154.23,27.95 154.31,28.2233333 154.47,28.45 C154.63,28.6766667 154.848333,28.8483333 155.125,28.965 C155.401667,29.0816667 155.71,29.14 156.05,29.14 Z M156.09,28.6 C155.723333,28.6 155.421667,28.515 155.185,28.345 C154.948333,28.175 154.83,27.9333333 154.83,27.62 C154.83,27.3066667 154.945,27.075 155.175,26.925 C155.405,26.775 155.693333,26.7 156.04,26.7 L156.04,26.7 L157.81,26.7 L157.81,26.82 C157.81,27.3866667 157.651667,27.825 157.335,28.135 C157.018333,28.445 156.603333,28.6 156.09,28.6 Z" id="PublicBeta" fill="#FFFFFF" fill-rule="nonzero"></path>
        <g id="logo" transform="translate(-0.000000, 0.000000)" fill="#FFFFFF" fill-rule="nonzero">
            <path d="M29.3669604,0 L21.5229604,12.732 L18.3129604,17.942 L15.0689604,23.208 C14.0497557,24.0671608 12.7046413,24.4353398 11.3899604,24.215 C10.4533464,24.0631662 9.588201,23.6206231 8.91696042,22.95 C8.07196042,22.105 7.60296042,20.866 7.62996042,19.551 C7.65496042,18.357 8.08296042,17.291 8.80396042,16.627 C9.74996042,15.757 10.6999604,15.423 11.6019604,15.423 C12.9389604,15.423 14.1679604,16.156 15.1129604,16.959 L15.1429604,16.984 C15.1459604,16.987 15.3749604,17.222 15.5739604,17.547 L19.7449604,10.897 C17.5689604,9.134 15.1969604,8.118 12.8319604,7.852 C9.57396042,7.483 6.33196042,8.534 3.63696042,11.015 C1.39596042,13.078 0.069960418,16.132 0.00296041796,19.394 C-0.0454792856,21.6236528 0.501290326,23.8259193 1.58696042,25.774 C2.11132735,26.715432 2.76277337,27.5802131 3.52296042,28.344 C4.58642089,29.4073057 5.83837854,30.2635336 7.21496042,30.869 C8.76473316,31.5514662 10.4395746,31.904 12.1329604,31.904 C15.2509604,31.904 18.3689604,30.718 20.7429604,28.344 L21.0589604,28.027 L21.8869604,26.684 L24.7919604,21.969 L29.4189604,14.459 L34.1209604,21.969 L27.6619604,21.969 L23.4469604,29.599 L47.8979604,29.599 L47.8679604,29.551 L29.3669604,0 Z" id="Path"></path>
            <path d="M59.4909604,5.695 L63.6099604,5.695 L68.8469604,18.21 L64.3369604,18.21 L63.6809604,16.541 L59.3309604,16.541 L58.6929604,18.21 L54.2529604,18.21 L59.4909604,5.695 Z M62.6509604,13.594 L61.5149604,10.576 L60.3789604,13.594 L62.6509604,13.594 Z" id="Shape"></path>
            <polygon id="Path" points="73.7999604 5.783 78.1319604 5.783 80.7949604 10.15 83.4569604 5.783 87.7889604 5.783 87.7889604 18.21 83.6529604 18.21 83.6529604 12.05 80.7949604 16.47 80.7229604 16.47 77.8649604 12.05 77.8649604 18.21 73.7999604 18.21"></polygon>
            <path d="M93.6489604,5.783 L99.2389604,5.783 C102.54296,5.783 104.79696,7.257 104.79696,10.203 L104.79696,10.239 C104.79696,13.239 102.50696,14.837 99.1519604,14.837 L97.8019604,14.837 L97.8019604,18.21 L93.6489604,18.21 L93.6489604,5.783 Z M98.9209604,11.873 C99.9859604,11.873 100.69596,11.393 100.69596,10.505 L100.69596,10.47 C100.69596,9.564 100.03996,9.102 98.9389604,9.102 L97.8029604,9.102 L97.8029604,11.872 L98.9209604,11.873 Z" id="Shape"></path>
            <polygon id="Path" points="110.12396 5.783 114.27696 5.783 114.27696 14.659 120.11896 14.659 120.11896 18.21 110.12296 18.21"></polygon>
            <polygon id="Path" points="125.49796 5.783 129.65196 5.783 129.65196 18.21 125.49796 18.21"></polygon>
            <polygon id="Path" points="135.54596 5.783 145.94896 5.783 145.94896 9.333 139.69996 9.333 139.69996 10.913 145.50496 10.913 145.50496 14.144 139.69996 14.144 139.69996 18.21 135.54596 18.21"></polygon>
            <polygon id="Path" points="155.05596 13.807 150.36996 5.784 155.02196 5.784 157.15196 9.867 159.29996 5.784 163.89796 5.784 159.21096 13.754 159.21096 18.21 155.05696 18.21"></polygon>
        </g>
        <polygon id="Path" fill="#E52B25" points="99.4285714 22.5 99.4285714 24.4645714 100.818275 23.0756339 101.424366 23.6817254 100.033714 25.0714286 102 25.0714286 102 25.9285714 100.034571 25.9285714 101.424366 27.3182746 100.818275 27.9243661 99.4285714 26.5345714 99.4285714 28.5 98.5714286 28.5 98.5714286 26.5337143 97.1817254 27.9243661 96.5756339 27.3182746 97.9645714 25.9285714 96 25.9285714 96 25.0714286 97.9654286 25.0714286 96.5756339 23.6817254 97.1817254 23.0756339 98.5714286 24.4654286 98.5714286 22.5"></polygon>
    </g>
</svg>
